X: 29089
T: Neily Cleere's
R: polka
M: 2/4
K: Dmajor
FG|A2 A>B|=c/B/A FG|AB =c/B/A|G2 FG|
A>^G A>B|=c/B/A f2|ed AF|G2:|
|:fg|a>g fa|ge fg|a>g fa|g2 fg|
a>g fa|ge f2|ed AF|G2:|

